X: 1
T: Dick Cheney's Trip To The Unspecified Location
M: 4/4
L: 1/8
R: reel
K: Dmin
AD D2 FDCD|EDCD FD D2|AD D2 FDCD|EFGA GF D2:|
A^ccd e^fed|^cde^f g2fe|dB (3BAB AF (3FEF|GFEF D2FG|
A^ccd e^fed|^cde^f g2fg|a^ff2 gee2|d^fe^c d=BAG||
